icons/24x24_reseller_outline.svg

<svg xmlns="http://www.w3.org/2000/svg" width="24" height="24" viewBox="0 0 24 24">
  <path d="M4,10.8084158 L4,13.1915842 L16,15.7630128 L16,8.23698722 L4,10.8084158 Z M3.97313233,15.2312299 C3.8687863,15.6720285 3.47269407,16 3,16 C2.44771525,16 2,15.5522847 2,15 L2,9 C2,8.44771525 2.44771525,8 3,8 C3.47269407,8 3.8687863,8.3279715 3.97313233,8.76877014 L16,6.19158421 L16,5 C16,4.44771525 16.4477153,4 17,4 L21,4 C21.5522847,4 22,4.44771525 22,5 L22,19 C22,19.5522847 21.5522847,20 21,20 L17,20 C16.4477153,20 16,19.5522847 16,19 L16,17.8084158 L13,17.1655586 L13,18 C13,19.1045695 12.1045695,20 11,20 L8,20 C6.8954305,20 6,19.1045695 6,18 L6,15.6655586 L3.97313233,15.2312299 Z M8,16.0941301 L8,18 L11,18 L11,16.7369872 L8,16.0941301 Z M18,6 L18,18 L20,18 L20,6 L18,6 Z"/>
</svg>

<svg width="24" height="24" fill="none" xmlns="http://www.w3.org/2000/svg"><path d="M4 10.808v2.384l12 2.571V8.237L4 10.808Zm-.027 4.423A1 1 0 0 1 2 15V9a1 1 0 0 1 1.973-.231L16 6.192V5a1 1 0 0 1 1-1h4a1 1 0 0 1 1 1v14a1 1 0 0 1-1 1h-4a1 1 0 0 1-1-1v-1.192l-3-.642V18a2 2 0 0 1-2 2H8a2 2 0 0 1-2-2v-2.334l-2.027-.435ZM8 16.094V18h3v-1.263l-3-.643ZM18 6v12h2V6h-2Z" fill="#000"/></svg>
